X: 31333
T: Paddy McLeod's
R: jig
M: 6/8
K: Eminor
B|:EEE GFE|EGB efg|fed B/c/dB|AFB AFD|
EEE GFE|EGB efg|fed BAF|1 GEE E2G:|2 GEE E2f||
|:gef g2e|g2a bge|fdd d2e|f2g afd|
bag agf|gfe fdB|cB^A Be^d|1 eEE E2f:|2 eEE E2||

